X:1
T:O sacred head, now wounded
T:melody Hans Leo Hassler, 1601 harm. J.S. Bach 1729
T:St. Bernard of Clairvaux, 1091-1153
%%score [ ( 1 2 ) ( 3 4 ) ]
L:1/8
Q:1/4=72
M:4/4
K:C
V:1 treble nm="Soprano &amp; Alto" snm="S. &amp; A."
V:2 treble 
V:3 bass nm="Tenor &amp; Bass" snm="T. &amp; B."
V:4 bass 
V:1
"^Maestoso" E2 | A2 G2 F2 E2 | D4 E2 B2 | c2 c2 BA B2 | A6 E2 | A2 G2 F2 E2 | D4 E2 B2 | %7
 c2 c2 BA B2 | A6 c2 | BA G2 A2 B2 | c4 c2 G2 | A2 G2 F2 F2 | E6 c2 | Bc d2 c2 B2 | A4 B2 E2 | %15
 F2 E2 D2 G2 | E6 z2 |] %17
V:2
 C2 | C2 C2 CDDC | C2 B,2 C2 D2 | CD E2 E2 ED | C6 C2 | C2 C2 CDDC | C2 B,2 C2 D2 | CD E2 E2 ED | %8
 C6 AG | F2 ED C2 F2 | F2 GF E2 E2 | F2 E2 E2 D2 | ^C6 D2 | D2 D2 E2 D2 | E2 D2 D2 C2 | %15
 CB, C2 C2 B,2 | C6 z2 |] %17
V:3
 G,2 | F,2 G,2 A,G, F,2 | A,2 G,2 G,2 ^G,2 | A,2 A,2 A,2 ^G,2 | A,6 G,2 | F,2 G,2 A,G, G,2 | %6
 A,2 G,2 G,2 ^G,2 | A,2 A,2 B,2 ^G,2 | A,6 E2 | DC B,2 A,G,F,G, | A,2 G,F, G,2 C2 | %11
 C2 CB, A,2 A,2 | A,6 A,2 | G,2 G,^F, G,A,B,G, | E,A, ^F,2 G,2 G,2 | F,2 G,2 A,2 D,G, | G,6 z2 |] %17
V:4
 C,2 | F,2 E,2 C,D, E,2 | F,,2 G,,2 C,2 B,,2 | A,,B,,C,D, E,2 E,2 | A,,6 C,2 | D,2 E,2 A,,B,, C,2 | %6
 F,,2 G,,2 C,2 B,,2 | A,,B,,C,D, E,2 E,2 | A,,6 A,2 | D,2 E,2 F,E, D,2 | C,4 C,2 C,2 | %11
 F,2 C,2 D,E,F,G, | A,6 ^F,2 | G,2 B,,2 E,^F, G,2 | C,2 D,2 G,,2 C,B,, | A,,2 G,,2 F,,2 G,,2 | %16
 C,6 z2 |] %17

